icons/editor-transform-filled.svg

<svg width="24" height="24" viewBox="0 0 24 24" fill="none" xmlns="http://www.w3.org/2000/svg">
<g id="transform">
<path id="Icon" d="M19.0741 16.5478V7.45302M16.5478 19.0741H7.95828M4.92671 16.2951V7.70565M7.45302 4.92671H16.2951M3.41092 7.45302H6.4425C7.00059 7.45302 7.45302 7.00059 7.45302 6.4425V3.41092C7.45302 2.85282 7.00059 2.40039 6.4425 2.40039H3.41092C2.85282 2.40039 2.40039 2.85282 2.40039 3.41092V6.4425C2.40039 7.00059 2.85282 7.45302 3.41092 7.45302ZM17.5583 7.45302H20.5899C21.148 7.45302 21.6004 7.00059 21.6004 6.4425V3.41092C21.6004 2.85282 21.148 2.40039 20.5899 2.40039H17.5583C17.0002 2.40039 16.5478 2.85282 16.5478 3.41092V6.4425C16.5478 7.00059 17.0002 7.45302 17.5583 7.45302ZM3.41092 21.6004H6.4425C7.00059 21.6004 7.45302 21.148 7.45302 20.5899V17.5583C7.45302 17.0002 7.00059 16.5478 6.4425 16.5478H3.41092C2.85282 16.5478 2.40039 17.0002 2.40039 17.5583V20.5899C2.40039 21.148 2.85282 21.6004 3.41092 21.6004ZM17.5583 21.6004H20.5899C21.148 21.6004 21.6004 21.148 21.6004 20.5899V17.5583C21.6004 17.0002 21.148 16.5478 20.5899 16.5478H17.5583C17.0002 16.5478 16.5478 17.0002 16.5478 17.5583V20.5899C16.5478 21.148 17.0002 21.6004 17.5583 21.6004Z" stroke="black" stroke-width="2" stroke-linecap="round"/>
</g>
</svg>

<svg xmlns="http://www.w3.org/2000/svg" width="24" height="24" fill="none" viewBox="0 0 24 24"><path stroke="currentColor" stroke-linecap="round" stroke-width="2" d="M19.074 16.548V7.453m-2.526 11.621h-8.59m-3.031-2.779v-8.59m2.526-2.778h8.842M3.411 7.453h3.032a1.01 1.01 0 0 0 1.01-1.01V3.41a1.01 1.01 0 0 0-1.01-1.01H3.41A1.01 1.01 0 0 0 2.4 3.41v3.032c0 .558.452 1.01 1.01 1.01Zm14.147 0h3.032a1.01 1.01 0 0 0 1.01-1.01V3.41a1.01 1.01 0 0 0-1.01-1.01h-3.032a1.01 1.01 0 0 0-1.01 1.01v3.032c0 .558.452 1.01 1.01 1.01ZM3.411 21.6h3.032a1.01 1.01 0 0 0 1.01-1.01v-3.032a1.01 1.01 0 0 0-1.01-1.01H3.41a1.01 1.01 0 0 0-1.01 1.01v3.032c0 .558.452 1.01 1.01 1.01Zm14.147 0h3.032a1.01 1.01 0 0 0 1.01-1.01v-3.032a1.01 1.01 0 0 0-1.01-1.01h-3.032a1.01 1.01 0 0 0-1.01 1.01v3.032c0 .558.452 1.01 1.01 1.01Z"/></svg>
